src/icons/file-md.svg

<?xml version="1.0" encoding="UTF-8" standalone="no"?>
<svg
   version="1.2"
   viewBox="0 0 16 16"
   width="16"
   height="16"
   id="svg1"
   sodipodi:docname="md.svg"
   inkscape:version="1.4 (e7c3feb100, 2024-10-09)"
   xmlns:inkscape="http://www.inkscape.org/namespaces/inkscape"
   xmlns:sodipodi="http://sodipodi.sourceforge.net/DTD/sodipodi-0.dtd"
   xmlns="http://www.w3.org/2000/svg"
   xmlns:svg="http://www.w3.org/2000/svg">
  <defs
     id="defs1" />
  <sodipodi:namedview
     id="namedview1"
     pagecolor="#505050"
     bordercolor="#eeeeee"
     borderopacity="1"
     inkscape:showpageshadow="0"
     inkscape:pageopacity="0"
     inkscape:pagecheckerboard="0"
     inkscape:deskcolor="#505050"
     inkscape:zoom="34.5"
     inkscape:cx="8"
     inkscape:cy="7.9855072"
     inkscape:window-width="1880"
     inkscape:window-height="1040"
     inkscape:window-x="1386"
     inkscape:window-y="20"
     inkscape:window-maximized="0"
     inkscape:current-layer="svg1" />
  <title
     id="title1">rectangle-svg</title>
  <style
     id="style1">
		.s0 { fill: #5bafd4 } 
		.s1 { fill: #000000 } 
	</style>
  <g
     id="Layer 1">
    <path
       id="path1"
       class="s0"
       d="M 4.1992188 3 C 3.0992187 3 2.4996094 2.9992186 2.0996094 3.1992188 C 1.6996094 3.3992186 1.3992186 3.6996094 1.1992188 4.0996094 C 0.99921865 4.4996094 1 5.0992187 1 6.1992188 L 1 9.8007812 C 1 10.900781 0.99921865 11.500391 1.1992188 11.900391 C 1.3992187 12.300391 1.6996094 12.600781 2.0996094 12.800781 C 2.4996094 13.000781 3.0992187 13 4.1992188 13 L 11.800781 13 C 12.900781 13 13.500391 13.000781 13.900391 12.800781 C 14.300391 12.600781 14.600781 12.300391 14.800781 11.900391 C 15.000781 11.500391 15 10.900781 15 9.8007812 L 15 6.1992188 C 15 5.0992188 15.000781 4.4996094 14.800781 4.0996094 C 14.600781 3.6996094 14.300391 3.3992187 13.900391 3.1992188 C 13.500391 2.9992185 12.900781 3 11.800781 3 L 4.1992188 3 z M 3.6992188 4.6992188 C 4.032552 4.6992188 4.3 4.7670573 4.5 4.9003906 C 4.7 5.1003906 4.833724 5.3658853 4.9003906 5.6992188 L 5.4003906 8.1992188 L 5.8007812 5.6992188 C 5.8674479 5.3658854 5.9992187 5.1003906 6.1992188 4.9003906 C 6.3992188 4.7670573 6.6666667 4.6992188 7 4.6992188 C 7.2666667 4.6992188 7.466276 4.7341146 7.5996094 4.8007812 C 7.7996094 4.8674479 7.9333333 4.966276 8 5.0996094 C 8.1333333 5.2996094 8.1992188 5.4992188 8.1992188 5.6992188 C 8.1992185 5.7658854 8.2341146 5.932552 8.3007812 6.1992188 L 8.3007812 7 C 8.3674481 7.2666667 8.4003906 7.6 8.4003906 8 C 8.4670573 8.3333333 8.5 8.6666667 8.5 9 C 8.5666667 9.3333333 8.5996094 9.6666667 8.5996094 10 C 8.5996094 10.266667 8.632552 10.499219 8.6992188 10.699219 L 8.6992188 11.099609 C 8.6992188 11.432943 8.6003906 11.667448 8.4003906 11.800781 C 8.2670573 12.000781 8.0674479 12.099609 7.8007812 12.099609 C 7.2007812 12.099609 6.8674479 11.733333 6.8007812 11 L 6.6992188 7.4003906 L 6.1992188 10.099609 C 6.1325521 10.432943 6.033724 10.667448 5.9003906 10.800781 C 5.7670573 10.934115 5.6003906 11 5.4003906 11 C 5.133724 11 4.9341146 10.934115 4.8007812 10.800781 C 4.6674479 10.667448 4.5666667 10.432943 4.5 10.099609 L 4 7.3007812 L 3.8007812 11 C 3.8007815 11.333333 3.7329427 11.600781 3.5996094 11.800781 C 3.466276 12.000781 3.233724 12.099609 2.9003906 12.099609 C 2.633724 12.099609 2.4341146 12.000781 2.3007812 11.800781 C 2.1007814 11.667448 2 11.432943 2 11.099609 L 2 10.699219 C 2.0666667 10.499219 2.0996094 10.233724 2.0996094 9.9003906 C 2.0996094 9.633724 2.1325519 9.3333333 2.1992188 9 C 2.1992188 8.6 2.2341146 8.233724 2.3007812 7.9003906 C 2.3007815 7.5670573 2.333724 7.233724 2.4003906 6.9003906 L 2.4003906 6.1992188 C 2.4670573 5.932552 2.5 5.7658854 2.5 5.6992188 C 2.5 5.4992188 2.5658854 5.2996094 2.6992188 5.0996094 C 2.7658854 4.966276 2.8996094 4.8674479 3.0996094 4.8007812 C 3.2329427 4.7341146 3.4325519 4.6992188 3.6992188 4.6992188 z M 12.199219 4.6992188 C 12.499219 4.6992188 12.699219 4.8992187 12.699219 5.1992188 L 12.699219 9.5136719 L 13 8.8007812 L 13.199219 8.4003906 L 13.400391 8.1992188 C 13.533724 8.132552 13.667448 8.0996094 13.800781 8.0996094 C 14.000781 8.0996094 14.167448 8.1674479 14.300781 8.3007812 C 14.434115 8.367448 14.5 8.4992188 14.5 8.6992188 C 14.5 8.7658853 14.467057 8.833724 14.400391 8.9003906 L 13.199219 11.5 C 13.065885 11.633333 12.934115 11.734115 12.800781 11.800781 C 12.667448 11.934115 12.500781 12 12.300781 12 L 12.099609 12 C 11.899609 12 11.732943 11.934115 11.599609 11.800781 C 11.399609 11.734115 11.265885 11.633333 11.199219 11.5 L 10 8.9003906 C 9.9333333 8.833724 9.9003906 8.7658854 9.9003906 8.6992188 C 9.9003906 8.4992187 9.9662764 8.367448 10.099609 8.3007812 C 10.232943 8.167448 10.399609 8.0996094 10.599609 8.0996094 C 10.732943 8.0996094 10.866667 8.132552 11 8.1992188 L 11.199219 8.4003906 L 11.400391 8.8007812 L 11.699219 9.5117188 L 11.699219 5.1992188 C 11.699219 4.8992188 11.899219 4.6992188 12.199219 4.6992188 z " />
  </g>
</svg>

<svg xmlns="http://www.w3.org/2000/svg" width="16" height="16" version="1.2"><path d="M4.2 3c-1.1 0-1.7 0-2.1.2q-.6.3-.9.9c-.2.4-.2 1-.2 2.1v3.6c0 1.1 0 1.7.2 2.1q.3.6.9.9c.4.2 1 .2 2.1.2h7.6c1.1 0 1.7 0 2.1-.2q.6-.3.9-.9c.2-.4.2-1 .2-2.1V6.2c0-1.1 0-1.7-.2-2.1q-.3-.6-.9-.9c-.4-.2-1-.2-2.1-.2zm-.5 1.7q.5 0 .8.2.3.3.4.8l.5 2.5.4-2.5q.1-.5.4-.8.3-.2.8-.2.4 0 .6.1.3.1.4.3.2.3.2.6 0 .1.1.5V7q.1.4.1 1 .1.5.1 1 .1.5.1 1 0 .4.1.7v.4q0 .5-.3.7-.2.3-.6.3-.9 0-1-1.1l-.1-3.6-.5 2.7q-.1.5-.3.7t-.5.2q-.399 0-.6-.2t-.3-.7L4 7.3 3.8 11q0 .5-.2.8t-.7.3q-.399 0-.6-.3-.3-.2-.3-.7v-.4q.1-.3.1-.8 0-.4.1-.9 0-.6.1-1.1 0-.5.1-1v-.7q.1-.4.1-.5 0-.3.2-.6.1-.2.4-.3.2-.1.6-.1m8.5 0c.3 0 .5.2.5.5v4.314L13 8.8l.2-.4.2-.202a.9.9 0 0 1 .4-.1q.3 0 .5.202.2.099.2.398 0 .101-.1.201l-1.2 2.6a1.6 1.6 0 0 1-.4.3q-.2.2-.5.2h-.2a.68.68 0 0 1-.5-.2q-.3-.1-.4-.3L10 8.9q-.1-.1-.1-.2 0-.3.2-.4a.68.68 0 0 1 .5-.2q.2 0 .4.1l.2.2.2.4.3.712V5.199c0-.3.2-.5.5-.5" style="fill:#5bafd4"/></svg>
